format-wrap-inline.svg

<svg fill="currentColor" viewBox="0 0 24 24"><path d="m8 7 5 10H3zM3 3h18v2H3zm18 12v2h-7v-2zM3 19h18v2H3z"/></svg>

<svg  viewBox="0 0 24 24" fill="currentColor"><path  d="M8,7L13,17H3L8,7M3,3H21V5H3V3M21,15V17H14V15H21M3,19H21V21H3V19Z"/></svg>
